static/images/pieces/shogi/ctk/1NY.svg

<svg height="60" width="52.065" xmlns="http://www.w3.org/2000/svg" xmlns:xlink="http://www.w3.org/1999/xlink"><filter id="a"><feGaussianBlur in="SourceAlpha" result="blur" stdDeviation="2"/><feOffset dx="2" dy="2" result="offsetBlur"/><feBlend in="SourceGraphic" in2="offsetBlur" mode="normal"/></filter><g filter="url(#a)" transform="translate(5 5)"><g transform="matrix(-1 0 0 -1 42.065 50)"><path d="m7.845 4.148-7.084 45.575 40.616-.354-7.084-44.867-12.87-3.778z" fill="#feec99"/><path d="m18.584 40.34c-2.443-1.327-2.785-2.496-.728-2.496 2.044 0 2.104-.657.275-3.052-1.937-2.538-2.286-5.579-.795-6.927 1.175-1.064 1.723-.976 2.85.458l.97 1.232v-3.075c0-1.69-.168-3.178-.372-3.304-.205-.127-1.94.71-3.857 1.858-2.78 1.666-3.517 1.94-3.64 1.35-.196-.93.744-2.107 1.475-1.847.302.107 1.184-.379 1.959-1.08.775-.702 1.206-1.118.958-.925s-.661.351-.92.351c-.257 0 .31-.798 1.263-1.773 2.047-2.096 2.123-2.435.548-2.435-1.705 0-1.875-1.08-.491-3.116 1.392-2.05 1.498-2.75.476-3.142-1.108-.425-.326-1.222 1.2-1.222.863 0 1.61.373 2.076 1.039.966 1.38.939 1.524-.558 2.97l-1.286 1.242 1.462-.265c.935-.17 1.778-.016 2.338.426.845.667.835.719-.278 1.496-.635.443-1.686 1.281-2.338 1.862l-1.184 1.055 1.316-.47c2.234-.8 5.217-.584 6.149.445 1.115 1.232.666 2.145-1.386 2.823-1.815.599-2.872.233-1.517-.526 1.335-.747.93-1.344-.911-1.344-1.53 0-1.631.069-.896.607.76.556.783.927.272 4.425-.414 2.83-.424 4.204-.04 5.307.286.819.52 1.937.52 2.484 0 1.02-1.611 2.735-2.732 2.907-.767.117-1.244.554-.939.86.124.124.944.02 1.82-.232 2.271-.651 3.34-.201 3.164 1.331-.133 1.147-.33 1.255-2.482 1.356-1.463.068-2.863-.176-3.74-.653zm1.166-9.046c-.547-.769-1.219-1.398-1.492-1.398-.805 0-.079 3.122 1.116 4.797l1.08 1.515.146-1.758c.1-1.22-.16-2.186-.85-3.156z" fill="#fed1d1"/><path d="m18.303 40.046c-1.637-1.103-1.749-1.879-.286-1.987 1.794-.132 1.893-1.01.334-2.95-1.9-2.365-2.441-5.677-1.159-7.095 1.079-1.192 1.428-1.164 2.816.224l1.148 1.148v-2.99c0-1.645-.18-3.102-.402-3.239-.22-.136-1.787.588-3.48 1.61-3.877 2.337-4.658 2.433-3.591.44.26-.487.767-.774 1.124-.637s1.354-.41 2.214-1.217c1.333-1.249 1.391-1.384.395-.911-.888.42-.669.034.915-1.607 1.992-2.063 2.032-2.16.912-2.16-2.14 0-2.392-.855-.993-3.377 1.235-2.224 1.245-2.305.38-2.949-.84-.623-.843-.68-.063-.979.456-.174 1.382-.124 2.06.113 1.555.544 1.93 2.596.644 3.524-1.647 1.187-1.493 1.57.565 1.406 2.516-.2 3.25.944 1.29 2.012-.697.38-2.005 1.326-2.905 2.101l-1.637 1.41 1.965-.93c2.483-1.173 5.309-1.201 6.711-.066 1.398 1.132.97 2.092-1.237 2.769-1.91.586-2.81.332-1.474-.417 1.322-.74.937-1.344-.855-1.344-1.557 0-1.617.052-.892.778.555.555.692 1.191.477 2.22-.726 3.484-.81 5.997-.267 7.94.518 1.848.486 2.21-.286 3.27-.478.655-1.211 1.198-1.63 1.206-.418.008-1.007.311-1.308.674-.463.558-.117.62 2.28.402 2.575-.233 2.828-.175 2.828.65 0 1.404-.944 2.029-3.063 2.029-1.25 0-2.508-.382-3.53-1.07zm2.853-5.485c0-1.398-2.086-5.133-2.867-5.133-.584 0-.5 2.685.122 3.888.694 1.345 1.856 2.658 2.35 2.658.217 0 .395-.636.395-1.413z" fill="#feb0b0"/><path d="m19.052 40.469c-.772-.336-1.692-.96-2.044-1.384-.568-.684-.508-.773.512-.773.634 0 1.53-.417 1.99-.926.772-.851.776-.949.06-1.223-1.138-.437-3.09-4.02-3.09-5.672 0-1.847 1.356-3.568 2.473-3.14.456.175 1.13.872 1.497 1.548.633 1.165.67 1.05.687-2.131.01-1.85-.197-3.496-.46-3.658-.264-.163-1.836.56-3.495 1.608-3.779 2.387-4.575 2.498-3.5.49.288-.538.76-.778 1.2-.61.444.17 1.303-.28 2.214-1.16 3.176-3.067 8.276-4.288 10.138-2.425 1.518 1.518 1.287 1.839-2.045 2.838-1.326.397-1.333.39-.486-.545 1.028-1.137.338-1.813-1.493-1.463-1.041.2-1.088.3-.464.988.595.659.612 1.294.118 4.489-.48 3.102-.465 4.058.09 5.74.633 1.927.614 2.073-.415 3.168-.593.632-1.332 1.149-1.641 1.149-.31 0-.829.32-1.155.713-.523.63-.286.677 2.037.404 2.195-.258 2.678-.182 2.925.462.744 1.937-2.616 2.837-5.653 1.513zm2.104-5.99c0-1.456-2.041-5.05-2.869-5.05-.582 0-.497 2.686.124 3.887.694 1.345 1.856 2.658 2.35 2.658.217 0 .395-.672.395-1.494zm-2.825-13.615c2.027-2.128 2.051-2.189.876-2.189-2.11 0-2.35-.953-.85-3.364 1.159-1.861 1.254-2.25.672-2.733-1.006-.835-.825-1.383.457-1.383 2.49 0 3.454 2.695 1.436 4.017-1.683 1.103-1.441 1.54.693 1.254 1.51-.202 1.923-.089 2.188.601.198.516.098.927-.252 1.044-.319.106-1.482.882-2.585 1.724s-2.616 1.91-3.362 2.374c-1.086.675-.94.406.727-1.345z" fill="#fe9090"/><path d="m18.846 40.298c-1.842-.936-2.41-1.986-1.074-1.986.496 0 1.25-.385 1.674-.855.725-.8.697-.924-.455-1.987-2.41-2.221-3.163-5.6-1.664-7.451.747-.923.965-.973 1.841-.426.547.342 1.203 1.052 1.46 1.579.356.734.472.172.496-2.404.018-1.85-.176-3.49-.43-3.648-.254-.157-1.944.595-3.756 1.671-1.811 1.077-3.406 1.844-3.544 1.706-.456-.455.903-2.123 1.532-1.881.34.13 1.393-.445 2.341-1.277 3.627-3.185 8.105-4.188 10.042-2.251l1.01 1.01-1.062.86c-.584.473-1.485.86-2.002.86-.795 0-.848-.112-.342-.721.839-1.011-.036-1.747-1.607-1.353-1.12.282-1.185.4-.587 1.078.58.657.584 1.306.035 4.704-.351 2.167-.463 4.166-.249 4.441s.514 1.158.666 1.96c.215 1.138.042 1.68-.783 2.455-.582.547-1.282.995-1.556.995-.273 0-.763.32-1.089.713-.523.63-.286.677 2.037.404 2.195-.258 2.678-.182 2.925.462.788 2.052-2.83 2.88-5.859 1.342zm2.31-5.852c0-1.531-1.96-5.018-2.822-5.018-.62 0-.568 2.64.077 3.888.694 1.345 1.856 2.658 2.35 2.658.217 0 .395-.688.395-1.528zm-2.547-13.783 1.804-1.752-1.376-.238c-1.834-.318-1.952-1.388-.41-3.72 1.203-1.817 1.225-1.947.425-2.532-.615-.45-.69-.71-.278-.965 1.054-.652 2.822.166 3.145 1.455.25.993.068 1.41-.928 2.135-1.726 1.258-1.545 1.711.572 1.427 2.24-.3 3.056.61 1.526 1.701-.567.404-2.019 1.524-3.227 2.488-2.83 2.26-3.58 2.261-1.253.001z" fill="#fe7070"/><path d="m18.935 40.194c-2.06-.935-2.626-1.882-1.124-1.882.474 0 1.21-.385 1.635-.855.725-.8.701-.922-.368-1.926-2.489-2.338-3.247-5.664-1.721-7.548l.876-1.082 1.461 1.461 1.462 1.462v-3.47c0-2.465-.17-3.47-.584-3.47-.322 0-1.952.84-3.624 1.87-1.671 1.027-3.192 1.869-3.38 1.869-.187 0-.108-.51.176-1.132.298-.654.782-1.029 1.147-.889.348.134 1.504-.503 2.568-1.414 2.019-1.728 5.322-3.11 7.432-3.11.677 0 1.711.447 2.297.993.889.827.962 1.094.439 1.605-.345.337-1.258.767-2.03.955-1.283.313-1.346.274-.744-.457.888-1.078.031-1.91-1.558-1.51-1.038.26-1.127.42-.655 1.176.416.666.417 1.789.004 4.708-.362 2.561-.389 4.12-.08 4.696.759 1.418.533 3.461-.478 4.327-.518.443-1.123.806-1.346.806-.222 0-.684.336-1.024.746-.56.675-.368.716 1.99.421 2.865-.358 3.567.061 2.728 1.628-.654 1.222-2.838 1.23-5.499.022zm2.22-5.915c0-1.55-1.912-4.85-2.81-4.85-1.275 0-.631 3.352 1.096 5.708 1.148 1.568 1.715 1.284 1.715-.858zm-2.163-13.72 1.342-1.622-1.46-.378c-1.79-.464-1.83-1.212-.193-3.686 1.167-1.763 1.204-1.958.475-2.491-.878-.642-.6-1.187.603-1.187.955 0 2.332 1.44 2.332 2.437 0 .4-.526 1.072-1.169 1.494-1.709 1.12-1.434 1.634.818 1.534 2.575-.115 2.556.583-.068 2.566-3.94 2.976-4.11 3.061-2.68 1.333z" fill="#fe5050"/><path d="m20.194 40.674c-2.82-.856-4.34-2.362-2.383-2.362.474 0 1.21-.385 1.635-.855.725-.8.7-.922-.383-1.94-.636-.598-1.504-1.998-1.93-3.111-1.427-3.738.843-6.426 3.054-3.616l.969 1.232v-3.57c0-2.45-.175-3.569-.557-3.569-.307 0-1.974.842-3.705 1.87-3.602 2.14-3.91 2.229-3.212.922.28-.521.713-.822.963-.667s1.48-.577 2.735-1.627c3.567-2.987 7.24-4.006 9.282-2.575 1.367.957 1.315 1.801-.151 2.47-1.705.776-2.276.67-1.353-.254.749-.75.74-.82-.17-1.227-.532-.237-1.533-.29-2.223-.116-1.166.293-1.196.36-.418.929.774.565.795.928.274 4.65-.395 2.823-.419 4.31-.08 4.943.762 1.423.57 3.22-.45 4.24-.514.515-1.12.936-1.345.936-.226 0-.69.336-1.03.746-.56.675-.363.715 2.046.414 2.624-.328 2.667-.314 2.667.84 0 1.658-1.516 2.122-4.235 1.297zm.962-6.237c0-1.548-.316-2.374-1.39-3.624-1.164-1.358-1.466-1.505-1.874-.917-.267.386-.366 1.227-.219 1.87.336 1.47 2.408 4.675 3.022 4.675.254 0 .46-.902.46-2.004zm1.403.107c0-.242-.21-.44-.468-.44-.257 0-.468.328-.468.729 0 .4.21.599.468.44.257-.16.468-.487.468-.73zm-3.515-13.922c1.165-1.273 1.28-1.596.701-1.962-.381-.24-1.061-.441-1.511-.445-1.119-.01-1.031-.647.432-3.143 1.159-1.977 1.192-2.177.454-2.717-1.146-.837.145-1.256 1.614-.524 1.697.846 1.657 2.08-.12 3.604l-1.562 1.342 2.338-.103c1.472-.065 2.337.09 2.337.42 0 .437-1.987 2.119-5.376 4.55-.386.276-.074-.184.693-1.022z" fill="#fe2f2f"/><path d="m20.281 40.649c-.866-.205-1.989-.786-2.494-1.291-.914-.913-.898-.918 2.74-.852 3.16.058 3.683.185 3.827.932.295 1.534-1.032 1.929-4.073 1.211zm-1.393-5.38c-1.865-2.477-2.518-4.855-1.754-6.387.815-1.635 2.027-1.618 2.972.041.449.79.921 1.436 1.05 1.437.197.003.227-3.83.05-6.659-.067-1.09-1.366-1.03-3.089.143-.771.526-2.205 1.377-3.186 1.892l-1.782.937.52-.973c.287-.535.725-.847.974-.693s1.523-.573 2.833-1.616c1.309-1.042 3.48-2.242 4.825-2.666 2.124-.67 2.622-.685 3.8-.12 1.773.849 1.953 1.967.428 2.662-1.592.725-1.867.695-1.182-.13 1.09-1.314-.84-2.195-2.998-1.368-.688.264-.686.339.022.856.696.509.717.973.206 4.573-.414 2.914-.43 4.266-.06 4.958.784 1.465.606 3.253-.426 4.286-.514.514-1.093.928-1.286.92s-1.055-.95-1.917-2.094zm2.268-.708c0-1.826-1.926-5.6-2.858-5.6-.74 0-.991 2.349-.403 3.768.709 1.712 2.233 3.712 2.827 3.712.239 0 .434-.846.434-1.88zm1.403.244c0-.386-.21-.701-.468-.701-.257 0-.468.315-.468.701s.21.701.468.701c.257 0 .468-.315.468-.7zm-3.573-14.123c1.472-1.61 1.322-2.474-.43-2.474-1.448 0-1.44-.744.028-2.906 1.386-2.04 1.438-2.502.351-3.135-.679-.395-.562-.479.685-.49 1.06-.01 1.659.276 2.03.97.453.846.306 1.219-1.035 2.634l-1.563 1.648 1.78-.27c1.843-.281 3.13-.027 3.13.617 0 .205-.685.804-1.52 1.333-.836.529-2.256 1.54-3.156 2.249l-1.637 1.287z" fill="#fe0505"/></g></g></svg>

<svg xmlns="http://www.w3.org/2000/svg" width="52.065" height="60">
<!--
Created by Hari Seldon and modified by orangain, licensed under Creative Commons Attribution-Share Alike 3.0 Unported.
See: https://creativecommons.org/licenses/by-sa/3.0/deed.en

Original file is available at: https://commons.wikimedia.org/wiki/File:Shogi_narikyo(svg).svg
-->
<filter id="drop-shadow">
    <feGaussianBlur in="SourceAlpha" result="blur" stdDeviation="2" />
    <feOffset result="offsetBlur" dx="2" dy="2" />
    <feBlend in="SourceGraphic" in2="offsetBlur" mode="normal" />
</filter>
<g filter="url(#drop-shadow)" transform="translate(5 5)">
<g transform="rotate(180 21.0325 25)">
    <path d="M7.845 4.148l-7.084 45.575 40.616 -0.354 -7.084 -44.867 -12.87 -3.778z" fill="#FEEC99"/>
    <path d="M18.584 40.34C16.141 39.013 15.799 37.844 17.856 37.844 19.9 37.844 19.96 37.187 18.131 34.792 16.194 32.254 15.845 29.213 17.336 27.865 18.511 26.801 19.059 26.889 20.186 28.323L21.156 29.555 21.156 26.48C21.156 24.79 20.988 23.302 20.784 23.176 20.579 23.049 18.844 23.886 16.927 25.034 14.147 26.7 13.41 26.974 13.287 26.384 13.091 25.454 14.031 24.277 14.762 24.537 15.064 24.644 15.946 24.158 16.721 23.457 17.496 22.755 17.927 22.339 17.679 22.532 17.431 22.725 17.018 22.883 16.759 22.883 16.502 22.883 17.069 22.085 18.022 21.11 20.069 19.014 20.145 18.675 18.57 18.675 16.865 18.675 16.695 17.595 18.079 15.559 19.471 13.509 19.577 12.809 18.555 12.417 17.447 11.992 18.229 11.195 19.755 11.195 20.618 11.195 21.365 11.568 21.831 12.234 22.797 13.614 22.77 13.758 21.273 15.204L19.987 16.446 21.449 16.181C22.384 16.011 23.227 16.165 23.787 16.607 24.632 17.274 24.622 17.326 23.509 18.103 22.874 18.546 21.823 19.384 21.171 19.965L19.987 21.02 21.303 20.55C23.537 19.75 26.52 19.966 27.452 20.995 28.567 22.227 28.118 23.14 26.066 23.818 24.251 24.417 23.194 24.051 24.549 23.292 25.884 22.545 25.479 21.948 23.638 21.948 22.108 21.948 22.007 22.017 22.742 22.555 23.502 23.111 23.525 23.482 23.014 26.98 22.6 29.81 22.59 31.184 22.974 32.287 23.26 33.106 23.494 34.224 23.494 34.771 23.494 35.791 21.883 37.506 20.762 37.678 19.995 37.795 19.518 38.232 19.823 38.538 19.947 38.662 20.767 38.558 21.643 38.306 23.914 37.655 24.983 38.105 24.807 39.637 24.674 40.784 24.477 40.892 22.325 40.993 20.862 41.061 19.462 40.817 18.585 40.34ZM19.75 31.294C19.203 30.525 18.531 29.896 18.258 29.896 17.453 29.896 18.179 33.018 19.374 34.693L20.454 36.208 20.6 34.45C20.7 33.23 20.44 32.264 19.75 31.294Z" fill="#fed1d1"/>
    <path d="M18.303 40.046C16.666 38.943 16.554 38.167 18.017 38.059 19.811 37.927 19.91 37.049 18.351 35.109 16.451 32.744 15.91 29.432 17.192 28.014 18.271 26.822 18.62 26.85 20.008 28.238L21.156 29.386 21.156 26.396C21.156 24.751 20.976 23.294 20.754 23.157 20.534 23.021 18.967 23.745 17.274 24.767 13.397 27.104 12.616 27.2 13.683 25.207 13.943 24.72 14.45 24.433 14.807 24.57 15.164 24.707 16.161 24.16 17.021 23.353 18.354 22.104 18.412 21.969 17.416 22.442 16.528 22.862 16.747 22.476 18.331 20.835 20.323 18.772 20.363 18.675 19.243 18.675 17.103 18.675 16.851 17.82 18.25 15.298 19.485 13.074 19.495 12.993 18.63 12.349 17.79 11.726 17.787 11.669 18.567 11.37 19.023 11.196 19.949 11.246 20.627 11.483 22.182 12.027 22.557 14.079 21.271 15.007 19.624 16.194 19.778 16.577 21.836 16.413 24.352 16.213 25.086 17.357 23.126 18.425 22.429 18.805 21.121 19.751 20.221 20.526L18.584 21.936 20.549 21.006C23.032 19.833 25.858 19.805 27.26 20.94 28.658 22.072 28.23 23.032 26.023 23.709 24.113 24.295 23.213 24.041 24.549 23.292 25.871 22.552 25.486 21.948 23.694 21.948 22.137 21.948 22.077 22 22.802 22.726 23.357 23.281 23.494 23.917 23.279 24.946 22.553 28.43 22.469 30.943 23.012 32.886 23.53 34.734 23.498 35.096 22.726 36.156 22.248 36.811 21.515 37.354 21.096 37.362 20.678 37.37 20.089 37.673 19.788 38.036 19.325 38.594 19.671 38.656 22.068 38.438 24.643 38.205 24.896 38.263 24.896 39.088 24.896 40.492 23.952 41.117 21.833 41.117 20.583 41.117 19.325 40.735 18.303 40.047ZM21.156 34.561C21.156 33.163 19.07 29.428 18.289 29.428 17.705 29.428 17.789 32.113 18.411 33.316 19.105 34.661 20.267 35.974 20.761 35.974 20.978 35.974 21.156 35.338 21.156 34.561Z" fill="#feb0b0"/>
    <path d="M19.052 40.469C18.28 40.133 17.36 39.509 17.008 39.085 16.44 38.401 16.5 38.312 17.52 38.312 18.154 38.312 19.05 37.895 19.51 37.386 20.282 36.535 20.286 36.437 19.57 36.163 18.432 35.726 16.48 32.143 16.48 30.491 16.48 28.644 17.836 26.923 18.953 27.351 19.409 27.526 20.083 28.223 20.45 28.899 21.083 30.064 21.12 29.949 21.137 26.768 21.147 24.918 20.94 23.272 20.677 23.11 20.413 22.947 18.841 23.67 17.182 24.718 13.403 27.105 12.607 27.216 13.682 25.208 13.97 24.67 14.442 24.43 14.882 24.598 15.326 24.768 16.185 24.318 17.096 23.438 20.272 20.371 25.372 19.15 27.234 21.013 28.752 22.531 28.521 22.852 25.189 23.851 23.863 24.248 23.856 24.241 24.703 23.306 25.731 22.169 25.041 21.493 23.21 21.843 22.169 22.043 22.122 22.143 22.746 22.831 23.341 23.49 23.358 24.125 22.864 27.32 22.384 30.422 22.399 31.378 22.954 33.06 23.587 34.987 23.568 35.133 22.539 36.228 21.946 36.86 21.207 37.377 20.898 37.377 20.588 37.377 20.069 37.697 19.743 38.09 19.22 38.72 19.457 38.767 21.78 38.494 23.975 38.236 24.458 38.312 24.705 38.956 25.449 40.893 22.089 41.793 19.052 40.469ZM21.156 34.479C21.156 33.023 19.115 29.429 18.287 29.429 17.705 29.429 17.79 32.115 18.411 33.316 19.105 34.661 20.267 35.974 20.761 35.974 20.978 35.974 21.156 35.302 21.156 34.48ZM18.331 20.864C20.358 18.736 20.382 18.675 19.207 18.675 17.097 18.675 16.857 17.722 18.357 15.311 19.516 13.45 19.611 13.061 19.029 12.578 18.023 11.743 18.204 11.195 19.486 11.195 21.976 11.195 22.94 13.89 20.922 15.212 19.239 16.315 19.481 16.752 21.615 16.466 23.125 16.264 23.538 16.377 23.803 17.067 24.001 17.583 23.901 17.994 23.551 18.111 23.232 18.217 22.069 18.993 20.966 19.835 19.863 20.677 18.35 21.745 17.604 22.209 16.518 22.884 16.664 22.615 18.331 20.864Z" fill="#fe9090"/>
    <path d="M18.846 40.298C17.004 39.362 16.436 38.312 17.772 38.312 18.268 38.312 19.022 37.927 19.446 37.457 20.171 36.657 20.143 36.533 18.991 35.47 16.581 33.249 15.828 29.87 17.327 28.019 18.074 27.096 18.292 27.046 19.168 27.593 19.715 27.935 20.371 28.645 20.628 29.172 20.984 29.906 21.1 29.344 21.124 26.768 21.142 24.918 20.948 23.278 20.694 23.12 20.44 22.963 18.75 23.715 16.938 24.791 15.127 25.868 13.532 26.635 13.394 26.497 12.938 26.042 14.297 24.374 14.926 24.616 15.266 24.746 16.319 24.171 17.267 23.339 20.894 20.154 25.372 19.151 27.309 21.088L28.319 22.098 27.257 22.958C26.673 23.431 25.772 23.818 25.255 23.818 24.46 23.818 24.407 23.706 24.913 23.097 25.752 22.086 24.877 21.35 23.306 21.744 22.186 22.026 22.121 22.144 22.719 22.822 23.299 23.479 23.303 24.128 22.754 27.526 22.403 29.693 22.291 31.692 22.505 31.967 22.719 32.242 23.019 33.125 23.171 33.927 23.386 35.065 23.213 35.607 22.388 36.382 21.806 36.929 21.106 37.377 20.832 37.377 20.559 37.377 20.069 37.697 19.743 38.09 19.22 38.72 19.457 38.767 21.78 38.494 23.975 38.236 24.458 38.312 24.705 38.956 25.493 41.008 21.875 41.836 18.846 40.298ZM21.156 34.446C21.156 32.915 19.196 29.428 18.334 29.428 17.714 29.428 17.766 32.068 18.411 33.316 19.105 34.661 20.267 35.974 20.761 35.974 20.978 35.974 21.156 35.286 21.156 34.446ZM18.609 20.663L20.413 18.911 19.037 18.673C17.203 18.355 17.085 17.285 18.627 14.953 19.83 13.136 19.852 13.006 19.052 12.421 18.437 11.971 18.362 11.711 18.774 11.456 19.828 10.804 21.596 11.622 21.919 12.911 22.169 13.904 21.987 14.321 20.991 15.046 19.265 16.304 19.446 16.757 21.563 16.473 23.803 16.173 24.619 17.083 23.089 18.174 22.522 18.578 21.07 19.698 19.862 20.662 17.032 22.922 16.282 22.923 18.609 20.663Z" fill="#fe7070"/>
    <path d="M18.935 40.194C16.875 39.259 16.309 38.312 17.811 38.312 18.285 38.312 19.021 37.927 19.446 37.457 20.171 36.657 20.147 36.535 19.078 35.531 16.589 33.193 15.831 29.867 17.357 27.983L18.233 26.901 19.694 28.362 21.156 29.824 21.156 26.354C21.156 23.889 20.986 22.884 20.572 22.884 20.25 22.884 18.62 23.724 16.948 24.754 15.277 25.781 13.756 26.623 13.568 26.623 13.381 26.623 13.46 26.113 13.744 25.491 14.042 24.837 14.526 24.462 14.891 24.602 15.239 24.736 16.395 24.099 17.459 23.188 19.478 21.46 22.781 20.078 24.891 20.078 25.568 20.078 26.602 20.525 27.188 21.071 28.077 21.898 28.15 22.165 27.627 22.676 27.282 23.013 26.369 23.443 25.597 23.631 24.314 23.944 24.251 23.905 24.853 23.174 25.741 22.096 24.884 21.264 23.295 21.664 22.257 21.924 22.168 22.084 22.64 22.84 23.056 23.506 23.057 24.629 22.644 27.548 22.282 30.109 22.255 31.668 22.564 32.244 23.323 33.662 23.097 35.705 22.086 36.571 21.568 37.014 20.963 37.377 20.74 37.377 20.518 37.377 20.056 37.713 19.716 38.123 19.156 38.798 19.348 38.839 21.706 38.544 24.571 38.186 25.273 38.605 24.434 40.172 23.78 41.394 21.596 41.402 18.935 40.194ZM21.155 34.279C21.155 32.729 19.243 29.429 18.345 29.429 17.07 29.429 17.714 32.781 19.441 35.137 20.589 36.705 21.156 36.421 21.156 34.279ZM18.992 20.559L20.334 18.937 18.874 18.559C17.084 18.095 17.044 17.347 18.681 14.873 19.848 13.11 19.885 12.915 19.156 12.382 18.278 11.74 18.556 11.195 19.759 11.195 20.714 11.195 22.091 12.635 22.091 13.632 22.091 14.032 21.565 14.704 20.922 15.126 19.213 16.246 19.488 16.76 21.74 16.66 24.315 16.545 24.296 17.243 21.672 19.226 17.732 22.202 17.562 22.287 18.992 20.559Z" fill="#fe5050"/>
    <path d="M20.194 40.674C17.374 39.818 15.854 38.312 17.811 38.312 18.285 38.312 19.021 37.927 19.446 37.457 20.171 36.657 20.146 36.535 19.063 35.517 18.427 34.919 17.559 33.519 17.133 32.406 15.706 28.668 17.976 25.98 20.187 28.79L21.156 30.022 21.156 26.452C21.156 24.002 20.981 22.883 20.599 22.883 20.292 22.883 18.625 23.725 16.894 24.753 13.292 26.893 12.984 26.982 13.682 25.675 13.962 25.154 14.395 24.853 14.645 25.008 14.895 25.163 16.125 24.431 17.38 23.381 20.947 20.394 24.62 19.375 26.662 20.806 28.029 21.763 27.977 22.607 26.511 23.276 24.806 24.052 24.235 23.946 25.158 23.022 25.907 22.272 25.898 22.202 24.988 21.795 24.456 21.558 23.455 21.505 22.765 21.679 21.599 21.972 21.569 22.039 22.347 22.608 23.121 23.173 23.142 23.536 22.621 27.258 22.226 30.081 22.202 31.568 22.541 32.201 23.303 33.624 23.111 35.421 22.091 36.441 21.577 36.956 20.971 37.377 20.746 37.377 20.52 37.377 20.056 37.713 19.716 38.123 19.156 38.798 19.353 38.838 21.762 38.537 24.386 38.209 24.429 38.223 24.429 39.377 24.429 41.035 22.913 41.499 20.194 40.674ZM21.156 34.437C21.156 32.889 20.84 32.063 19.766 30.813 18.602 29.455 18.3 29.308 17.892 29.896 17.625 30.282 17.526 31.123 17.673 31.766 18.009 33.236 20.081 36.441 20.695 36.441 20.949 36.441 21.155 35.539 21.155 34.437ZM22.559 34.544C22.559 34.302 22.349 34.104 22.091 34.104 21.834 34.104 21.623 34.432 21.623 34.833 21.623 35.233 21.833 35.432 22.091 35.273 22.348 35.113 22.559 34.786 22.559 34.543ZM19.044 20.622C20.209 19.349 20.324 19.026 19.745 18.66 19.364 18.42 18.684 18.219 18.234 18.215 17.115 18.205 17.203 17.568 18.666 15.072 19.825 13.095 19.858 12.895 19.12 12.355 17.974 11.518 19.265 11.099 20.734 11.831 22.431 12.677 22.391 13.911 20.614 15.435L19.052 16.777 21.39 16.674C22.862 16.609 23.727 16.764 23.727 17.094 23.727 17.531 21.74 19.213 18.351 21.644 17.965 21.92 18.277 21.46 19.044 20.622Z" fill="#fe2f2f"/>
    <path d="M20.281 40.649C19.415 40.444 18.292 39.863 17.787 39.358 16.873 38.445 16.889 38.44 20.527 38.506 23.687 38.564 24.21 38.691 24.354 39.438 24.649 40.972 23.322 41.367 20.281 40.649ZM18.888 35.269C17.023 32.792 16.37 30.414 17.134 28.882 17.949 27.247 19.161 27.264 20.106 28.923 20.555 29.713 21.027 30.359 21.156 30.36 21.353 30.363 21.383 26.53 21.206 23.701 21.139 22.611 19.84 22.671 18.117 23.844 17.346 24.37 15.912 25.221 14.931 25.736L13.149 26.673 13.669 25.7C13.956 25.165 14.394 24.853 14.643 25.007 14.892 25.161 16.166 24.434 17.476 23.391 18.785 22.349 20.956 21.149 22.301 20.725 24.425 20.055 24.923 20.04 26.101 20.605 27.874 21.454 28.054 22.572 26.529 23.267 24.937 23.992 24.662 23.962 25.347 23.137 26.437 21.823 24.507 20.942 22.349 21.769 21.661 22.033 21.663 22.108 22.371 22.625 23.067 23.134 23.088 23.598 22.577 27.198 22.163 30.112 22.147 31.464 22.517 32.156 23.301 33.621 23.123 35.409 22.091 36.442 21.577 36.956 20.998 37.37 20.805 37.362 20.612 37.354 19.75 36.412 18.888 35.268ZM21.156 34.561C21.156 32.735 19.23 28.961 18.298 28.961 17.558 28.961 17.307 31.31 17.895 32.729 18.604 34.441 20.128 36.441 20.722 36.441 20.961 36.441 21.156 35.595 21.156 34.561ZM22.559 34.805C22.559 34.419 22.349 34.104 22.091 34.104 21.834 34.104 21.623 34.419 21.623 34.805 21.623 35.191 21.833 35.506 22.091 35.506 22.348 35.506 22.559 35.191 22.559 34.806ZM18.986 20.682C20.458 19.072 20.308 18.208 18.556 18.208 17.108 18.208 17.116 17.464 18.584 15.302 19.97 13.262 20.022 12.8 18.935 12.167 18.256 11.772 18.373 11.688 19.62 11.677 20.68 11.667 21.279 11.953 21.65 12.647 22.103 13.493 21.956 13.866 20.615 15.281L19.052 16.929 20.832 16.659C22.675 16.378 23.962 16.632 23.962 17.276 23.962 17.481 23.277 18.08 22.442 18.609 21.606 19.138 20.186 20.149 19.286 20.858L17.649 22.145 18.986 20.682Z" fill="#fe0505"/>
</g>
</g>
</svg>
